X:1
T:Title
%%score { 1 | 2 }
L:1/8
M:6/8
K:D
V:1 treble nm="Grand Piano"
V:2 bass 
V:1
 z3 z2[Q:1/4=100] [FA] | [FA]2 [DF] [DF]2 [FA] | [GB]2 [GB] [FA]2 [FA] | [EG]2 [EG] [DF]2 [DF] | %4
 [CE]3- [CE]2 [FA] | [FA]2 [DF] [DF]2 [FA] |[M:7/8] [GB]2 [Ac] [Bd]3 [GB] | %7
[M:3/4] [FA]2 [FA] [Ec]2 [Ec] |[M:5/8] [Fd]-[Fd]- [Fd]3 |] %9
V:2
 z3 z2 D, | D,2 D, D,2 D, | D,2 D, D,2 D, | C,2 C, D,2 D, | A,,3- A,,2 D, | D,2 D, D,2 D, | %6
[M:7/8] G,2 G, G,3 G, |[M:3/4] A,2 A, A,,2 A,, |[M:5/8] D,-D,- D,3 |] %9

